X: 60
T: Da suanzao
%%abc-version 2.0
%%abcx-abcm2ps-target-version 5.9.1 (29 Sep 2008)
%%abc-creator hum2abc beta
%%abcx-conversion-date 2013/10/02 07:52:29
%%abc-edited-by Helmut Schaffrath
%%humdrum-veritas 2519696272
%%humdrum-veritas-data 3982876129
%%continueall 1
%%barnumbers 0
L: 1/8
M: 2/4
K: F
d d/ c/ A c [I:setbarnb 1]| 
d d/ c/ A c | 
d d/ c/ A c | 
d> g f d | 
c/ d/ c/ G/c2 | 
d g f d | 
G/ A/F2A | 
G/ A/F3 | 
A> A d c | 
A3G | 
A A F/ G/ F/ D/ | 
C4 |]  



